picto/cog-railway-right.svg

<svg class="color-immutable" width="24" height="24" viewBox="0 0 24 24" fill="none" xmlns="http://www.w3.org/2000/svg"><g clip-path="url(#a)"><path d="M0 22.5v-21C0 .675.675 0 1.5 0h21c.825 0 1.5.675 1.5 1.5v21c0 .825-.675 1.5-1.5 1.5h-21C.675 24 0 23.325 0 22.5Z" fill="#2D327D"/><path d="M21.001 3v.376L3 4.951v-.376L21.001 3ZM12.693 17.819l3.773-.331a2.021 2.021 0 0 1-3.773.331ZM8.432 7.198l3.937-2.753 4.356 2.028-2.073 1.687 4.707-.411a.977.977 0 0 1 1.057.885l.64 7.322c.002.011.002.021.002.032a.376.376 0 0 1-.343.374L3 17.914v-4.293l4.117-.359a.376.376 0 0 0 .342-.374l-.001-.032-.262-2.99a.374.374 0 0 0-.406-.34L3 9.858V9.18l7.767-.68-2.335-1.302Zm9.001 1.773.261 2.989a.375.375 0 0 0 .373.343l.033-.002 1.606-.14h.001a.376.376 0 0 0 .342-.374l-.001-.032-.262-2.989a.375.375 0 0 0-.407-.341l-1.605.141a.375.375 0 0 0-.343.373c0 .011 0 .022.002.032Zm-1.822.272.374 4.259a.56.56 0 0 0 1.122-.049c0-.017 0-.033-.002-.05l-.372-4.258a.562.562 0 0 0-1.123.05l.001.048Zm-1.793.157.373 4.259a.562.562 0 0 0 1.122-.049l-.002-.049-.373-4.258a.56.56 0 0 0-1.122.049.77.77 0 0 1 .002.048Zm1.645-2.77-3.027-1.408-2.734 1.912 2.263 1.261 1.488-.13 2.01-1.635ZM8.21 9.402a.374.374 0 0 0-.342.373l.001.033.262 2.988a.374.374 0 0 0 .373.343c.011 0 .022 0 .033-.002l4.521-.395a.375.375 0 0 0 .342-.373l-.001-.032-.262-2.989a.374.374 0 0 0-.405-.341l-4.522.395ZM8.209 18.21l3.774-.33a2.023 2.023 0 0 1-3.774.33ZM21.001 19.425 3 21.001v-.641l18.001-1.575v.64Z" fill="#fff"/></g><defs><clipPath id="a"><path fill="#fff" d="M0 0h24v24H0z"/></clipPath></defs></svg>

<svg class="color-immutable" width="24" height="24" viewBox="0 0 24 24" fill="none" xmlns="http://www.w3.org/2000/svg"><path d="M0 22.5V1.5C0 0.675 0.675 0 1.5 0H22.5C23.325 0 24 0.675 24 1.5V22.5C24 23.325 23.325 24 22.5 24H1.5C0.675 24 0 23.325 0 22.5Z" fill="#2D327D"/><path d="M21.001 3V3.376L3 4.951V4.575L21.001 3Z" fill="white"/><path d="M12.693 17.819L16.466 17.488C16.223 18.363 15.426 18.968 14.518 18.968C13.739 18.968 13.028 18.522 12.693 17.819Z" fill="white"/><path d="M8.432 7.198L12.369 4.445L16.725 6.473L14.652 8.16L19.359 7.749C19.387 7.746 19.415 7.744 19.444 7.744C19.949 7.744 20.371 8.131 20.416 8.634L21.056 15.956C21.058 15.967 21.058 15.977 21.058 15.988C21.058 16.182 20.909 16.345 20.715 16.362L3 17.914V13.621L7.117 13.262C7.311 13.244 7.459 13.082 7.459 12.888C7.459 12.877 7.458 12.867 7.458 12.856L7.196 9.866C7.18 9.673 7.018 9.524 6.823 9.524C6.812 9.524 6.801 9.524 6.79 9.526L3 9.858V9.18L10.767 8.5L8.432 7.198ZM17.433 8.971L17.694 11.96C17.711 12.154 17.873 12.303 18.067 12.303C18.078 12.303 18.088 12.302 18.1 12.301L19.706 12.161H19.707C19.9 12.143 20.049 11.982 20.049 11.787C20.049 11.776 20.048 11.766 20.048 11.755L19.786 8.766C19.769 8.573 19.607 8.424 19.412 8.424C19.401 8.424 19.39 8.424 19.379 8.425L17.774 8.566C17.58 8.583 17.431 8.745 17.431 8.939C17.431 8.95 17.431 8.961 17.433 8.971ZM15.611 9.243L15.985 13.502C16.01 13.793 16.253 14.015 16.545 14.015C16.855 14.015 17.107 13.763 17.107 13.453C17.107 13.436 17.107 13.42 17.105 13.403L16.733 9.145C16.707 8.854 16.465 8.632 16.173 8.632C15.863 8.632 15.61 8.884 15.61 9.195C15.61 9.211 15.61 9.227 15.611 9.243ZM13.818 9.4L14.191 13.659C14.216 13.95 14.459 14.173 14.751 14.173C15.061 14.173 15.313 13.921 15.313 13.61C15.313 13.593 15.312 13.578 15.311 13.561L14.938 9.303C14.914 9.012 14.67 8.789 14.379 8.789C14.068 8.789 13.816 9.041 13.816 9.352C13.817 9.368 13.818 9.384 13.818 9.4ZM15.463 6.63L12.436 5.222L9.702 7.134L11.965 8.395L13.453 8.265L15.463 6.63ZM8.21 9.402C8.016 9.419 7.868 9.581 7.868 9.775C7.868 9.786 7.868 9.797 7.869 9.808L8.131 12.796C8.148 12.99 8.309 13.139 8.504 13.139C8.515 13.139 8.526 13.139 8.537 13.137L13.058 12.742C13.251 12.725 13.4 12.563 13.4 12.369C13.4 12.358 13.399 12.347 13.399 12.337L13.137 9.348C13.12 9.154 12.959 9.005 12.764 9.005C12.753 9.005 12.742 9.006 12.732 9.007L8.21 9.402Z" fill="white"/><path d="M8.20898 18.21L11.983 17.88C11.74 18.755 10.942 19.36 10.034 19.36C9.25499 19.361 8.54498 18.913 8.20898 18.21Z" fill="white"/><path d="M21.001 19.425L3 21.001V20.36L21.001 18.785V19.425Z" fill="white"/></svg>
